build/assets/images/content/phoneCall.svg

<svg width="60" height="60" fill="none" xmlns="http://www.w3.org/2000/svg"><g clip-path="url(#clip0_2_4)" fill="#fff"><path d="M44.071 38.385c-1.275-.728-2.597-.958-3.721-.646-.844.234-1.532.768-1.995 1.546-1.021 1.221-2.287 2.646-2.592 2.867-2.371 1.604-4.252 1.414-6.295-.629L17.982 30.037c-2.045-2.045-2.233-3.928-.631-6.292.224-.31 1.649-1.575 2.869-2.595.778-.464 1.312-1.151 1.546-1.996.311-1.123.081-2.444-.653-3.731-.173-.296-4.289-7.27-8.085-9.277a4.907 4.907 0 00-5.796.872L4.695 9.555c-7.401 7.402-6.031 16.596 3.962 26.588l14.705 14.706c4.539 4.54 8.937 7.326 13.068 8.281 1.096.253 2.17.38 3.224.38 3.717 0 7.169-1.573 10.296-4.7l2.537-2.537a4.907 4.907 0 00.872-5.796c-2.008-3.795-8.981-7.913-9.288-8.092zm7.002 12.473l-2.537 2.537c-6.568 6.568-14.563 5.237-23.76-3.961L10.071 34.728c-9.197-9.196-10.53-17.19-3.962-23.76l2.537-2.537a2.924 2.924 0 013.446-.518c3.294 1.743 7.256 8.454 7.289 8.511.449.787.62 1.608.457 2.196-.1.36-.323.634-.684.836l-.15.104c-.853.712-2.883 2.434-3.308 3.061-.612.904-1.018 1.792-1.231 2.665-.711-1.418-1.285-3.06-1.474-4.881a1.007 1.007 0 00-1.099-.892A1.003 1.003 0 0011 20.612c.722 6.953 6.13 11.479 6.359 11.668.025.021.055.028.081.046l10.612 10.612c.045.045.091.084.136.127.035.052.058.109.104.155.189.187 4.704 4.567 11.599 5.283a1.001 1.001 0 00.206-1.99c-2.115-.219-3.988-.839-5.549-1.558.766-.23 1.545-.612 2.334-1.147.627-.426 2.349-2.454 3.06-3.307l.104-.151c.202-.359.476-.583.836-.684.585-.159 1.408.007 2.185.45 1.879 1.102 7.073 4.56 8.521 7.296a2.913 2.913 0 01-.515 3.446zM27.362.487a1 1 0 100 2c16.892 0 30.635 13.743 30.635 30.635a1 1 0 102 0c0-17.995-14.64-32.635-32.635-32.635z"/><path d="M27.362 9.517c13.016 0 23.604 10.589 23.604 23.604a1 1 0 102 0c0-14.118-11.486-25.604-25.604-25.604a1 1 0 100 2z"/><path d="M27.362 16.547c9.14 0 16.575 7.436 16.575 16.575a1 1 0 102 0c0-10.242-8.333-18.575-18.575-18.575a1 1 0 100 2z"/></g><defs><clipPath id="clip0_2_4"><path fill="#fff" d="M0 0h59.997v59.997H0z"/></clipPath></defs></svg>

<svg width="60" height="60" viewBox="0 0 60 60" fill="none" xmlns="http://www.w3.org/2000/svg">
<g clip-path="url(#clip0_2_4)">
<path d="M44.071 38.385C42.796 37.657 41.474 37.427 40.35 37.739C39.506 37.973 38.818 38.507 38.355 39.285C37.334 40.506 36.068 41.931 35.763 42.152C33.392 43.756 31.511 43.566 29.468 41.523L17.982 30.037C15.937 27.992 15.749 26.109 17.351 23.745C17.575 23.435 19 22.17 20.22 21.15C20.998 20.686 21.532 19.999 21.766 19.154C22.077 18.031 21.847 16.71 21.113 15.423C20.94 15.127 16.824 8.15301 13.028 6.14601C11.099 5.12701 8.77301 5.47601 7.23201 7.01801L4.69501 9.55501C-2.70599 16.957 -1.33599 26.151 8.65701 36.143L23.362 50.849C27.901 55.389 32.299 58.175 36.43 59.13C37.526 59.383 38.6 59.51 39.654 59.51C43.371 59.51 46.823 57.937 49.95 54.81L52.487 52.273C54.028 50.732 54.379 48.403 53.359 46.477C51.351 42.682 44.378 38.564 44.071 38.385ZM51.073 50.858L48.536 53.395C41.968 59.963 33.973 58.632 24.776 49.434L10.071 34.728C0.874008 25.532 -0.458992 17.538 6.10901 10.968L8.64601 8.43101C9.21201 7.86501 9.95901 7.56901 10.716 7.56901C11.183 7.56901 11.655 7.68101 12.092 7.91301C15.386 9.65601 19.348 16.367 19.381 16.424C19.83 17.211 20.001 18.032 19.838 18.62C19.738 18.98 19.515 19.254 19.154 19.456L19.004 19.56C18.151 20.272 16.121 21.994 15.696 22.621C15.084 23.525 14.678 24.413 14.465 25.286C13.754 23.868 13.18 22.226 12.991 20.405C12.933 19.856 12.444 19.465 11.892 19.513C11.343 19.571 10.944 20.062 11 20.612C11.722 27.565 17.13 32.091 17.359 32.28C17.384 32.301 17.414 32.308 17.44 32.326L28.052 42.938C28.097 42.983 28.143 43.022 28.188 43.065C28.223 43.117 28.246 43.174 28.292 43.22C28.481 43.407 32.996 47.787 39.891 48.503C39.926 48.506 39.961 48.508 39.995 48.508C40.501 48.508 40.935 48.125 40.989 47.612C41.046 47.062 40.646 46.571 40.097 46.513C37.982 46.294 36.109 45.674 34.548 44.955C35.314 44.725 36.093 44.343 36.882 43.808C37.509 43.382 39.231 41.354 39.942 40.501L40.046 40.35C40.248 39.991 40.522 39.767 40.882 39.666C41.467 39.507 42.29 39.673 43.067 40.116C44.946 41.218 50.14 44.676 51.588 47.412C52.197 48.558 51.989 49.942 51.073 50.858Z" fill="white"/>
<path d="M27.362 0.487C26.809 0.487 26.362 0.934 26.362 1.487C26.362 2.04 26.809 2.487 27.362 2.487C44.254 2.487 57.997 16.23 57.997 33.122C57.997 33.675 58.444 34.122 58.997 34.122C59.55 34.122 59.997 33.675 59.997 33.122C59.997 15.127 45.357 0.487 27.362 0.487Z" fill="white"/>
<path d="M27.362 9.517C40.378 9.517 50.966 20.106 50.966 33.121C50.966 33.674 51.413 34.121 51.966 34.121C52.519 34.121 52.966 33.674 52.966 33.121C52.966 19.003 41.48 7.517 27.362 7.517C26.809 7.517 26.362 7.964 26.362 8.517C26.362 9.07 26.809 9.517 27.362 9.517Z" fill="white"/>
<path d="M27.362 16.547C36.502 16.547 43.937 23.983 43.937 33.122C43.937 33.675 44.384 34.122 44.937 34.122C45.49 34.122 45.937 33.675 45.937 33.122C45.937 22.88 37.604 14.547 27.362 14.547C26.809 14.547 26.362 14.994 26.362 15.547C26.362 16.1 26.809 16.547 27.362 16.547Z" fill="white"/>
</g>
<defs>
<clipPath id="clip0_2_4">
<rect width="59.997" height="59.997" fill="white"/>
</clipPath>
</defs>
</svg>
